X:292
T: Von Gott will ich nicht lassen
N: A0642B
O: Europa, Mitteleuropa, Deutschland
N: Dermantius 1611
R: Romanze, Ballade, Lied, religioeses Lied
M: 4/4
L: 1/4
K: G
G | GA_BG | A2=F
F | GGAA | D2z
G | GA_BG | A2=F
F | GGAA | D2z
d | c_BBA | _B2z
B | _BcdB | c2A
A | _BBGG | A2=F
D | EGGF | G3

@@@ Tune index: 605
